X: 39
T: Carol of the Bells (melody)
C: Monday
K: C
M: 3/4
L: 1/8
"Em" !mp! !tenuto!G2 FG .E2 | !tenuto!G2 FG .E2 | !tenuto!G2 FG .E2 | G2 FG E2 |: !mp! G2 FG E2 | "D" G2 FG E2 |
"C" G2 FG E2 | "Em" G2 FG E2 | G2 FG E2 | "D" G2 FG E2 | "C" G2 FG E2 | "Em" G2 FG E2 |
"Am" G2 FG E2 | "Em" G2 FG E2 | "Am" G2 FG E2 | "Em" G2 FG E2 |!mf!  vB2 AB G2 | B2 AB G2 |
B2 AB G2 | B2 AB G2 | !f! ve2 ee (dc) | B2 BB (AG) | "Am" A2 AA (BA) | "Em" E2 EE E2 |
"B7" vB,3 (E FG) | "Em" AB A2 G2 | "B7" B,3 (E FG) | "Em" AB A2 G2 | vG2 FG E2 | "Am" G2 FG E2 | "Em" G2 FG E2 |
"Am" G2 FG E2 | "Em" (vE6 | E6) | (E6 | E6) :| "No chords" !p!B2 AB E2 | "Em" v!fermata!E6 |]

